X:0448
T:Miss Baker's Hornpipe.
M:C|
L:1/8
Q:1/2=96
I: :: ::
Z:Jack Campin * www.campin.me.uk * 2009
K:F
  cB |A2F2 FAGF|EGB2 BdcB|Acde fcdB|A2F2  F2::
(3cde|fcAc fagf|gece gbag|afge fdgf|edc=B c2
  fe |dcBA B2gf|edcB Acde|fcdB cAGB|A2F2  F2:|
<end>
<start>
